icons/op-remove-link-24.svg

<svg width="24" height="24" viewBox="0 0 24 24" fill="none" xmlns="http://www.w3.org/2000/svg">
<path d="M18.6343 20L11.6708 12.8241H8.0026V11.1759H10.071L8.47132 9.52756H8.0026C7.36619 9.52756 6.75585 9.78805 6.30584 10.2517C5.85583 10.7154 5.60302 11.3443 5.60302 12C5.60302 12.6557 5.85583 13.2846 6.30584 13.7483C6.75585 14.212 7.36619 14.4724 8.0026 14.4724H10.4022V16.1207H8.0026C7.02898 16.1216 6.0885 15.7564 5.35753 15.0937C4.62656 14.4311 4.15531 13.5164 4.03214 12.5213C3.90897 11.5262 4.14235 10.5189 4.68852 9.68843C5.23468 8.85795 6.05611 8.26128 6.99878 8.0103L4.23686 5.16534L5.36866 4L19.7661 18.8347L18.6351 19.9992V20H18.6343ZM18.5095 15.2084L17.3673 14.0323C17.7876 13.7323 18.1039 13.3018 18.2701 12.8036C18.4363 12.3053 18.4437 11.7654 18.2912 11.2626C18.1387 10.7597 17.8343 10.3202 17.4223 10.0081C17.0104 9.696 16.5125 9.52764 16.0012 9.52756H13.6016V7.87926H16.0012C16.8286 7.87936 17.6357 8.14391 18.3111 8.63643C18.9865 9.12894 19.497 9.82519 19.7722 10.6292C20.0475 11.4332 20.0739 12.3054 19.8479 13.1255C19.6219 13.9457 19.1546 14.6734 18.5103 15.2084H18.5095Z" fill="black"/>
</svg>

<svg xmlns="http://www.w3.org/2000/svg" width="24" height="24" viewBox="0 0 24 24"><path d="m18.634 20-6.963-7.176H8.003v-1.648h2.068l-1.6-1.648h-.468c-.637 0-1.247.26-1.697.724A2.509 2.509 0 0 0 5.603 12c0 .656.253 1.285.703 1.748.45.464 1.06.724 1.697.724h2.399v1.649H8.003a3.932 3.932 0 0 1-2.645-1.027 4.163 4.163 0 0 1-1.326-2.573 4.217 4.217 0 0 1 .657-2.833 4.003 4.003 0 0 1 2.31-1.678L4.237 5.165 5.369 4l14.397 14.835-1.131 1.164V20h-.001Zm-.125-4.792-1.142-1.176c.421-.3.737-.73.903-1.228a2.542 2.542 0 0 0 .021-1.541 2.469 2.469 0 0 0-.869-1.255 2.353 2.353 0 0 0-1.421-.48h-2.399V7.879h2.399a3.92 3.92 0 0 1 2.31.757 4.114 4.114 0 0 1 1.461 1.993c.275.804.302 1.676.076 2.497a4.125 4.125 0 0 1-1.338 2.082h-.001Z"/></svg>
